icons/1_Primary/Trimble.svg

<svg width="1024" height="1024" viewBox="0 0 1024 1024" fill="none" xmlns="http://www.w3.org/2000/svg">
<g clip-path="url(#clip0_2_3729)">
<path d="M512 1024C794.77 1024 1024 794.77 1024 512C1024 229.23 794.77 0 512 0C229.23 0 0 229.23 0 512C0 794.77 229.23 1024 512 1024Z" fill="#728DBE"/>
<path d="M342.35 229.32V361.9C373.09 328.609 413.272 305.51 457.51 295.7L342.35 229.32ZM506.79 312.88C476.56 313.02 446.65 319.05 418.73 330.63C435.35 326.96 469.9 330.63 488.16 335.66C505.324 323.462 525.74 316.668 546.79 316.15C533.579 313.909 520.2 312.812 506.8 312.87L506.79 312.88ZM552.59 335.95C537.43 335.99 523.78 339.49 514.85 345.17C537.385 355.12 557.995 368.954 575.74 386.04C589.09 376.37 603.55 368.34 618.82 362.13C600.16 343.26 574.76 335.9 552.6 335.95H552.59ZM432.56 350.66C419.31 350.75 406.12 352.47 393.3 355.8C354.35 411.04 372.44 491.94 417.78 542.37C437.141 512.919 459.188 485.324 483.64 459.94C460.57 431.28 451.42 387.01 471.88 355.29C459.014 352.134 445.808 350.578 432.56 350.66ZM494.95 362.3C476.52 387.01 482.17 418.9 500.49 443.6C517.896 427.537 536.492 412.815 556.12 399.56C538.31 383.331 517.542 370.681 494.95 362.3ZM632.72 380.11C618.245 386.063 604.676 394.017 592.41 403.74C607.928 422.056 621.178 442.178 631.87 463.67C653.52 441.06 649.17 402.38 632.72 380.11ZM354.28 383.39C287.45 462.1 292.37 578.96 365.59 651.77C374.6 620.683 387.78 590.959 404.77 563.41C355.7 513.09 338.57 439.76 354.28 383.4V383.39ZM669.18 415.05C670.929 428.257 669.34 441.691 664.559 454.125C659.777 466.56 651.956 477.597 641.81 486.23C650.439 507.659 656.751 529.949 660.64 552.72C690.32 514.16 689.42 459.1 669.18 415.06V415.05ZM573.07 416.81C553.104 429.949 534.202 444.637 516.54 460.74C546.28 485.45 585.17 490.31 612.65 477.76C602.302 455.737 588.988 435.233 573.08 416.82L573.07 416.81ZM716.04 445.08C729.75 488.747 729.631 535.584 715.7 579.18L832 512.02L716.05 445.09L716.04 445.08ZM499.84 477.02C475.71 502.22 454.07 529.691 435.22 559.05C490.91 604.45 582.5 616.38 639.71 573.3C636.85 547.884 630.751 522.938 621.56 499.07C581.98 517.05 532.69 505.46 499.84 477.02ZM703.08 495.45C700.08 528.34 686.42 559.34 664.18 583.76C664.88 600.53 664.07 617.34 661.75 633.97C692.32 594.57 707.06 545.17 703.08 495.46V495.45ZM422.66 579.86C398.24 622.09 389.31 653.36 386.03 669.58C458.84 724.33 559.61 722.3 630.15 664.66C638.021 644.237 641.861 622.484 641.46 600.6C573.84 640.85 480.67 625.47 422.67 579.85L422.66 579.86ZM342.32 661.33V794.7L458.33 727.76C413.732 718.118 373.209 694.913 342.32 661.33Z" fill="white"/>
</g>
<defs>
<clipPath id="clip0_2_3729">
<rect width="1024" height="1024" fill="white"/>
</clipPath>
</defs>
</svg>

<svg width="1024" height="1024" fill="none" xmlns="http://www.w3.org/2000/svg"><g clip-path="url(#a)"><path d="M512 1024c282.77 0 512-229.23 512-512S794.77 0 512 0 0 229.23 0 512s229.23 512 512 512Z" fill="#728DBE"/><path d="M342.35 229.32V361.9a222.232 222.232 0 0 1 115.16-66.2l-115.16-66.38Zm164.44 83.56c-30.23.14-60.14 6.17-88.06 17.75 16.62-3.67 51.17 0 69.43 5.03a105.7 105.7 0 0 1 58.63-19.51 233.077 233.077 0 0 0-39.99-3.28l-.01.01Zm45.8 23.07c-15.16.04-28.81 3.54-37.74 9.22a210.19 210.19 0 0 1 60.89 40.87c13.35-9.67 27.81-17.7 43.08-23.91-18.66-18.87-44.06-26.23-66.22-26.18h-.01Zm-120.03 14.71c-13.25.09-26.44 1.81-39.26 5.14-38.95 55.24-20.86 136.14 24.48 186.57a570.7 570.7 0 0 1 65.86-82.43c-23.07-28.66-32.22-72.93-11.76-104.65a160.865 160.865 0 0 0-39.32-4.63Zm62.39 11.64c-18.43 24.71-12.78 56.6 5.54 81.3a469.302 469.302 0 0 1 55.63-44.04 187.795 187.795 0 0 0-61.17-37.26Zm137.77 17.81a167.373 167.373 0 0 0-40.31 23.63 298.148 298.148 0 0 1 39.46 59.93c21.65-22.61 17.3-61.29.85-83.56Zm-278.44 3.28c-66.83 78.71-61.91 195.57 11.31 268.38a358.394 358.394 0 0 1 39.18-88.36c-49.07-50.32-66.2-123.65-50.49-180.01v-.01Zm314.9 31.66a79.716 79.716 0 0 1-27.37 71.18 324.052 324.052 0 0 1 18.83 66.49c29.68-38.56 28.78-93.62 8.54-137.66v-.01Zm-96.11 1.76a455.798 455.798 0 0 0-56.53 43.93c29.74 24.71 68.63 29.57 96.11 17.02a266.71 266.71 0 0 0-39.57-60.94l-.01-.01Zm142.97 28.27a222.045 222.045 0 0 1-.34 134.1L832 512.02l-115.95-66.93-.01-.01Zm-216.2 31.94a542.063 542.063 0 0 0-64.62 82.03c55.69 45.4 147.28 57.33 204.49 14.25a299.88 299.88 0 0 0-18.15-74.23c-39.58 17.98-88.87 6.39-121.72-22.05Zm203.24 18.43c-3 32.89-16.66 63.89-38.9 88.31.7 16.77-.11 33.58-2.43 50.21 30.57-39.4 45.31-88.8 41.33-138.51v-.01Zm-280.42 84.41c-24.42 42.23-33.35 73.5-36.63 89.72 72.81 54.75 173.58 52.72 244.12-4.92a169.495 169.495 0 0 0 11.31-64.06c-67.62 40.25-160.79 24.87-218.79-20.75l-.01.01Zm-80.34 81.47V794.7l116.01-66.94a221.102 221.102 0 0 1-116.01-66.43Z" fill="#fff"/></g><defs><clipPath id="a"><path fill="#fff" d="M0 0h1024v1024H0z"/></clipPath></defs></svg>
